assets/sinteze.svg

<svg xmlns="http://www.w3.org/2000/svg" viewBox="0 0 854 309.35">
  <title>SINTEZE</title>
  <g id="88f9a30a-751c-4ebc-8e0f-096ab02ff81e" data-name="Layer 2">
    <g id="f1e63529-6a32-4c00-baac-68d4bdef9830" data-name="Layer 4">
      <g id="0028ae97-ae15-4514-80b9-e7fb6594ec8f" data-name="TXTFULL">
        <g id="978f5c3a-597c-4553-9a50-8d6bde4a1d1c" data-name="SLOW">
          <polygon
            points="15.48 306.85 2.5 293.86 2.5 264.92 8.12 264.92 25.61 282.42 79.61 282.42 84.12 277.91 84.12 241.39 79.61 236.89 21.32 236.89 2.5 218.07 2.5 185.25 26.93 185.25 26.93 207.95 31.44 212.46 89.73 212.46 108.55 231.27 108.55 288.03 89.73 306.85 15.48 306.85"
            style="fill:#fff" />
          <path
            d="M24.43,187.75V209l6,6H88.7l17.35,17.35V287L88.7,304.35H16.52L5,292.83V267.42H7.08l17.49,17.49H80.65l6-6V240.36l-6-6H22.35L5,217V187.75H24.43m5-5H0v36.36l1.46,1.46,17.36,17.36,1.46,1.46h58.3l3,3v34.45l-3,3H26.64l-16-16-1.47-1.47H0V294.9l1.46,1.46L13,307.88l1.46,1.47H90.77l1.46-1.47,17.35-17.35,1.47-1.46V230.24l-1.47-1.47L92.23,211.42,90.77,210H32.47l-3-3V182.75Z" />
        </g>
        <g id="51ac9848-071b-41f9-b13a-69fb692df3f7" data-name="SMID">
          <polygon
            points="2.5 120.25 2.5 91.32 21.32 72.5 95.56 72.5 108.55 85.48 108.55 114.42 102.93 114.42 85.44 96.93 31.43 96.93 8.05 120.25 2.5 120.25"
            style="fill:#fff" />
          <path
            d="M94.53,75l11.52,11.52v25.4H104L86.48,94.43H30.4L7,117.75H5V92.35L22.35,75H94.53m2.07-5H20.28l-1.46,1.46L1.46,88.82,0,90.28v32.47H9.08l1.47-1.46L32.47,99.43H84.41l16,16,1.47,1.46h9.15V84.45L109.58,83,98.06,71.46,96.6,70Z" />
          <path d="M102.93,184.42l-.73-.73-16.76-16.8H21.31L2.5,148.07V115.25H26.91V138l4.53,4.52H95.57l13,13v28.93Z"
            style="fill:#fff" />
          <path
            d="M24.41,117.75V139l6,6H94.53l11.52,11.52v25.4H104L86.48,164.39H22.35L5,147V117.75H24.41m5-5H0V149.1l1.46,1.47,17.35,17.36,1.47,1.46H84.41l16,16.06,1.46,1.47h9.16V154.45L109.59,153,98.07,141.47,96.6,140H32.47l-3.06-3.06V112.75Z" />
        </g>
        <g id="dc4b8f9e-98c2-444d-89e5-d5eaf5511c52" data-name="STOP">
          <polygon
            points="2.5 50.25 2.5 21.32 21.32 2.5 95.56 2.5 108.55 15.48 108.55 44.42 102.93 44.42 85.44 26.93 31.43 26.93 8.05 50.25 2.5 50.25"
            style="fill:#fff" />
          <path
            d="M94.53,5l11.52,11.52v25.4H104L86.48,24.43H30.4L7,47.75H5V22.35L22.35,5H94.53M96.6,0H20.28L18.82,1.46,1.46,18.82,0,20.28V52.75H9.08l1.47-1.46L32.47,29.43H84.41l16,16,1.47,1.46h9.15V14.45L109.58,13,98.06,1.46,96.6,0Z" />
        </g>
        <g id="27b160c6-67cc-4338-a5ab-6dcfd51dd11a" data-name="ITOP">
          <rect x="126.32" y="2.5" width="106.05" height="24.43" style="fill:#fff" />
          <path d="M229.87,5V24.43H128.82V5H229.87m5-5h-111V29.43H234.87V0Z" />
        </g>
        <g id="f66c7f7f-7ce1-45e4-a0d8-3e58ae1e6da9" data-name="ILOW">
          <polygon
            points="126.33 306.85 126.33 282.42 167.13 282.42 167.13 236.85 126.33 236.85 126.33 212.41 167.13 212.41 167.13 166.85 126.33 166.85 126.33 142.41 167.13 142.41 167.13 96.93 126.33 96.93 126.33 72.5 167.13 72.5 167.13 21.93 172.61 21.93 191.56 40.89 191.56 72.5 232.37 72.5 232.37 96.93 191.56 96.93 191.56 142.41 232.37 142.41 232.37 166.85 191.56 166.85 191.56 212.41 232.37 212.41 232.37 236.85 191.56 236.85 191.56 282.42 232.37 282.42 232.37 306.85 126.33 306.85"
            style="fill:#fff" />
          <path
            d="M171.58,24.43l17.49,17.49V75h40.8V94.43h-40.8v50.48h40.8v19.44h-40.8v50.56h40.8v19.44h-40.8v50.56h40.8v19.44H128.82V284.91h40.81V234.35H128.82V214.91h40.81V164.35H128.82V144.91h40.81V94.43H128.82V75h40.81V24.43h2m2.07-5h-9V70H123.82V99.43h40.81v40.48H123.82v29.44h40.81v40.56H123.82v29.44h40.81v40.56H123.82v29.44H234.87V279.91h-40.8V239.35h40.8V209.91h-40.8V169.35h40.8V139.91h-40.8V99.43h40.8V70h-40.8V39.85l-1.47-1.46L175.11,20.9l-1.46-1.47Z" />
        </g>
        <g id="2b7141f0-893f-469c-bdfe-b7460d4652ef" data-name="N">
          <path
            d="M331.28,306.84,291,266.52V193l-16.38-16.37V306.84H250.15V2.5h24.92l40.32,40.33V116.4l16.38,16.37V2.5H356.2V306.84Zm.49-34.07V236.84h-.49L315.39,221V256.4Zm0-70v-36l-.53,0L315.47,151l-.08,35.37Zm-56.7-60.27L291,158.4V123l-16.38-16.37V142.5Zm0-70L291,88.4V53L274.58,36.58V72.5Z"
            style="fill:#fff" />
          <path
            d="M353.7,5V304.34H332.32l-38.86-38.86V191.91l-21.38-21.37v133.8H252.65V5H274l38.86,38.86v73.57l21.38,21.37V5H353.7M272.08,75H274l19.43,19.43V51.91L272.08,30.54V75m0,70H274l19.43,19.43V121.91l-21.38-21.37V145m62.19,63.8V164.43l-1.95-.09L313,145l-.09,42.43,21.38,21.37m0,70V234.34h-1.95l-19.43-19.43v42.52l21.38,21.37M358.7,0H329.27V126.74l-11.38-11.38V41.79l-1.46-1.46L277.57,1.47,276.1,0H247.65V309.34h29.43V182.61L288.46,194v73.56l1.46,1.47,38.86,38.86,1.47,1.46H358.7V0ZM277.08,71V42.61L288.46,54V82.36L277.57,71.47l-.49-.49Zm0,70V112.61L288.46,124v28.37l-10.89-10.89-.49-.49Zm40.81,44.39.06-28.32,10.83,10.83.49.48v28.38l-11.38-11.37Zm0,70V227l10.89,10.9.49.48v28.38l-11.38-11.38Z" />
        </g>
        <g id="157f7883-c05f-4190-a7bf-c4fa9845f32c" data-name="TTOP">
          <rect x="373.98" y="2.5" width="106.05" height="24.43" style="fill:#fff" />
          <path d="M477.52,5V24.43h-101V5h101m5-5h-111V29.43h111V0Z" />
        </g>
        <g id="dc4d75da-688c-44a0-a094-dcaa32595e66" data-name="TLOW">
          <polygon
            points="414.78 306.85 414.78 166.85 373.98 166.85 373.98 142.41 414.78 142.41 414.78 96.93 373.98 96.93 373.98 72.5 414.78 72.5 414.78 21.93 420.26 21.93 439.22 40.89 439.22 72.5 480.02 72.5 480.02 96.93 439.22 96.93 439.22 142.41 480.02 142.41 480.02 166.85 439.22 166.85 439.22 306.85 414.78 306.85"
            style="fill:#fff" />
          <path
            d="M419.23,24.43l17.49,17.49V75h40.8V94.43h-40.8v50.48h40.8v19.44h-40.8v140H417.28v-140h-40.8V144.91h40.8V94.43h-40.8V75h40.8V24.43h2m2.07-5h-9V70h-40.8V99.43h40.8v40.48h-40.8v29.44h40.8v140h29.44v-140h40.8V139.91h-40.8V99.43h40.8V70h-40.8V39.85l-1.47-1.46L422.76,20.9l-1.46-1.47Z" />
        </g>
        <g id="1a6942c4-9340-4ad3-8409-29bc03eca20a" data-name="E1LOW">
          <polygon
            points="516.62 306.85 497.8 288.03 497.8 212.46 519.63 212.43 497.8 190.81 497.8 161.32 516.62 142.5 579.42 142.42 579.42 126.87 603.85 126.87 603.85 166.84 526.74 166.93 522.23 171.44 522.23 180.68 554.01 212.46 579.42 212.42 579.42 196.87 603.85 196.87 603.85 236.85 522.23 236.89 522.23 277.91 526.74 282.42 579.42 282.42 579.42 266.87 603.85 266.87 603.85 306.85 516.62 306.85"
            style="fill:#fff" />
          <path
            d="M601.35,129.37v35l-75.65.08-6,6v11.32L553,215l28.94-.05V199.37h19.43v35l-81.62,0V279l6,6h56.22V269.37h19.43v35h-83.7L500.3,287V215l25.4-.05-25.4-25.15V162.35L517.65,145l64.27-.09V129.37h19.43m5-5H576.92v15.55l-59.27.08h-2.07l-1.46,1.46-17.35,17.36-1.47,1.46v31.57l1.48,1.47,16.79,16.61-13.28,0h-5v79.1l1.47,1.46,17.35,17.35,1.46,1.47h90.77v-45H576.92v15.54H527.77l-3-3V239.39l76.62,0h5v-45H576.92v15.55L555,210l-30.31-30.31v-7.17l3-3,73.58-.08h5v-45Z" />
        </g>
        <g id="1b81764c-e025-4bce-adcb-d1387eb6b5a8" data-name="E1TOP">
          <polygon
            points="524.46 77.46 497.8 50.8 497.8 21.32 516.62 2.5 603.85 2.5 603.85 26.93 526.74 26.93 522.23 31.44 522.23 40.68 559.01 77.46 524.46 77.46"
            style="fill:#fff" />
          <path
            d="M601.35,5V24.43H525.7l-6,6V41.72L553,75H525.5l-25.2-25.2V22.35L517.65,5h83.7m5-5H515.58l-1.46,1.46L496.77,18.82l-1.47,1.46V51.84l1.47,1.46L522,78.49,523.42,80h41.63l-8.54-8.54L524.73,39.64V32.47l3-3h78.58V0Z" />
        </g>
        <g id="1492dfb5-17c9-4fb2-808c-7be591447ac4" data-name="ZLOW">
          <polygon
            points="621.63 306.85 621.63 262.5 647.28 236.85 621.63 236.85 621.63 192.5 647.28 166.85 621.63 166.85 621.63 122.5 722.2 21.93 727.67 21.93 727.67 51.01 646.06 132.62 646.06 142.48 671.67 142.46 722.2 91.93 727.67 91.93 727.67 121.01 646.06 202.62 646.06 212.41 671.72 212.41 722.15 161.98 727.67 161.74 727.67 191.01 646.06 272.62 646.06 282.42 727.67 282.42 727.67 306.85 621.63 306.85"
            style="fill:#fff" />
          <path
            d="M725.18,24.43V50l-81.62,81.62V145l29.15,0,50.52-50.53h1.95V120l-81.62,81.62v13.32h29.19l50.48-50.48,1.95-.08V190l-81.62,81.62v13.32h81.62v19.44h-101V263.54l29.19-29.19H624.13V193.54l29.19-29.19H624.13V123.54l99.1-99.11h1.95m5-5h-9L719.7,20.9,620.59,120l-1.46,1.47v47.88h22.12L620.59,190l-1.46,1.47v47.88h22.12L620.59,260l-1.46,1.47v47.88h111V279.91H648.56v-6.25l80.15-80.15,1.47-1.47V159.12l-5.23.23-1.94.09-1.94.08-1.37,1.38-49,49H648.56v-6.25l80.15-80.15,1.47-1.47V89.43h-9L719.7,90.9,670.63,140H648.56v-6.32l80.15-80.15L730.18,52V19.43Z" />
        </g>
        <g id="247162db-25a6-4e16-8582-b02c583a0fe4" data-name="ZTOP">
          <rect x="621.63" y="2.5" width="106.05" height="24.43" style="fill:#fff" />
          <path d="M725.18,5V24.43h-101V5h101m5-5h-111V29.43h111V0Z" />
        </g>
        <g id="a52f9a06-a5f1-4e7e-848c-530aaa8aec71" data-name="E2LOW">
          <polygon
            points="764.27 306.85 745.45 288.03 745.45 212.46 827.07 212.42 827.07 196.87 851.5 196.87 851.5 236.85 769.88 236.89 769.88 277.91 774.39 282.42 827.07 282.42 827.07 266.87 851.5 266.87 851.5 306.85 764.27 306.85"
            style="fill:#fff" />
          <path
            d="M849,199.37v35l-81.62,0V279l6,6h56.22V269.37H849v35H765.3L748,287V215l81.62-.05V199.37H849m5-5H824.57v15.55L748,210h-5v79.11l1.47,1.46,17.35,17.35,1.46,1.47H854v-45H824.57v15.54H775.42l-3-3V239.39l76.62,0h5v-45Z" />
        </g>
        <g id="2dbdc320-3c27-4160-ab78-cc1279614a9c" data-name="E2TOP">
          <polygon
            points="791.46 166.85 745.45 120.8 745.45 72.46 767.11 72.46 745.45 50.8 745.45 21.32 764.27 2.5 851.5 2.5 851.5 26.93 774.39 26.93 769.88 31.44 769.88 40.68 801.66 72.46 832.07 72.46 832.07 96.89 769.88 96.89 769.88 110.68 801.66 142.46 827.07 142.46 827.07 126.87 851.5 126.87 851.5 166.85 791.46 166.85"
            style="fill:#fff" />
          <path
            d="M849,5V24.43H773.35l-6,6V41.72L800.63,75h28.94V94.39H767.38v17.33L800.63,145h28.94V129.37H849v35H792.5L748,119.76V75h25.2L748,49.76V22.35L765.3,5H849m5-5H763.23l-1.46,1.46L744.42,18.82,743,20.28V51.84l1.47,1.46L761.07,70H743v51.87l1.47,1.47,22.27,22.29L789,167.88l1.47,1.47H854v-45H824.57V140H802.7l-30.32-30.32V99.39h62.19V70H802.7L772.38,39.64V32.47l3-3H854V0Z" />
        </g>
      </g>
    </g>
  </g>
</svg>

<svg width="854" height="310" viewBox="0 0 854 310" fill="none" xmlns="http://www.w3.org/2000/svg">
<g id="SINTEZE" clip-path="url(#clip0_2002_20)">
<g id="SLOW">
<path id="Vector" d="M24.43 187.75V209L30.43 215H88.7L106.05 232.35V287L88.7 304.35H16.52L5 292.83V267.42H7.08L24.57 284.91H80.65L86.65 278.91V240.36L80.65 234.36H22.35L5 217V187.75H24.43ZM29.43 182.75H0V219.11L1.46 220.57L18.82 237.93L20.28 239.39H78.58L81.58 242.39V276.84L78.58 279.84H26.64L10.64 263.84L9.17 262.37H0V294.9L1.46 296.36L13 307.88L14.46 309.35H90.77L92.23 307.88L109.58 290.53L111.05 289.07V230.24L109.58 228.77L92.23 211.42L90.77 210H32.47L29.47 207V182.75H29.43Z" fill="white"/>
</g>
<g id="SMID">
<path id="Vector_2" d="M94.53 75L106.05 86.52V111.92H104L86.48 94.43H30.4L7 117.75H5V92.35L22.35 75H94.53ZM96.6 70H20.28L18.82 71.46L1.46 88.82L0 90.28V122.75H9.08L10.55 121.29L32.47 99.43H84.41L100.41 115.43L101.88 116.89H111.03V84.45L109.58 83L98.06 71.46L96.6 70Z" fill="white"/>
<path id="Vector_3" d="M24.41 117.75V139L30.41 145H94.53L106.05 156.52V181.92H104L86.48 164.39H22.35L5 147V117.75H24.41ZM29.41 112.75H0V149.1L1.46 150.57L18.81 167.93L20.28 169.39H84.41L100.41 185.45L101.87 186.92H111.03V154.45L109.59 153L98.07 141.47L96.6 140H32.47L29.41 136.94V112.75Z" fill="white"/>
</g>
<g id="STOP">
<path id="Vector_4" d="M94.53 5L106.05 16.52V41.92H104L86.48 24.43H30.4L7 47.75H5V22.35L22.35 5H94.53ZM96.6 0H20.28L18.82 1.46L1.46 18.82L0 20.28V52.75H9.08L10.55 51.29L32.47 29.43H84.41L100.41 45.43L101.88 46.89H111.03V14.45L109.58 13L98.06 1.46L96.6 0Z" fill="white"/>
</g>
<g id="ITOP">
<path id="Vector_5" d="M229.87 5V24.43H128.82V5H229.87ZM234.87 0H123.87V29.43H234.87V0Z" fill="white"/>
</g>
<g id="ILOW">
<path id="Vector_6" d="M171.58 24.43L189.07 41.92V75H229.87V94.43H189.07V144.91H229.87V164.35H189.07V214.91H229.87V234.35H189.07V284.91H229.87V304.35H128.82V284.91H169.63V234.35H128.82V214.91H169.63V164.35H128.82V144.91H169.63V94.43H128.82V75H169.63V24.43H171.63M173.7 19.43H164.7V70H123.82V99.43H164.63V139.91H123.82V169.35H164.63V209.91H123.82V239.35H164.63V279.91H123.82V309.35H234.87V279.91H194.07V239.35H234.87V209.91H194.07V169.35H234.87V139.91H194.07V99.43H234.87V70H194.07V39.85L192.6 38.39L175.11 20.9L173.65 19.43H173.7Z" fill="white"/>
</g>
<g id="N">
<path id="Vector_7" d="M353.7 5V304.34H332.32L293.46 265.48V191.91L272.08 170.54V304.34H252.65V5H274L312.86 43.86V117.43L334.24 138.8V5H353.7ZM272.08 75H274L293.43 94.43V51.91L272.08 30.54V75ZM272.08 145H274L293.43 164.43V121.91L272.05 100.54V145M334.24 208.8V164.43L332.29 164.34L313 145L312.91 187.43L334.29 208.8M334.29 278.8V234.34H332.34L312.91 214.91V257.43L334.29 278.8ZM358.7 0H329.27V126.74L317.89 115.36V41.79L316.43 40.33L277.57 1.47L276.1 0H247.65V309.34H277.08V182.61L288.46 194V267.56L289.92 269.03L328.78 307.89L330.25 309.35H358.7V0ZM277.08 71V42.61L288.46 54V82.36L277.57 71.47L277.08 70.98V71ZM277.08 141V112.61L288.46 124V152.37L277.57 141.48L277.08 140.99V141ZM317.89 185.39L317.95 157.07L328.78 167.9L329.27 168.38V196.76L317.89 185.39ZM317.89 255.39V227L328.78 237.9L329.27 238.38V266.76L317.89 255.38V255.39Z" fill="white"/>
</g>
<g id="TTOP">
<path id="Vector_8" d="M477.52 5V24.43H376.52V5H477.52ZM482.52 0H371.52V29.43H482.52V0Z" fill="white"/>
</g>
<g id="TLOW">
<path id="Vector_9" d="M419.23 24.43L436.72 41.92V75H477.52V94.43H436.72V144.91H477.52V164.35H436.72V304.35H417.28V164.35H376.48V144.91H417.28V94.43H376.48V75H417.28V24.43H419.28M421.35 19.43H412.35V70H371.55V99.43H412.35V139.91H371.55V169.35H412.35V309.35H441.79V169.35H482.59V139.91H441.79V99.43H482.59V70H441.79V39.85L440.32 38.39L422.76 20.9L421.3 19.43H421.35Z" fill="white"/>
</g>
<g id="E1LOW">
<path id="Vector_10" d="M601.35 129.37V164.37L525.7 164.45L519.7 170.45V181.77L553 215L581.94 214.95V199.37H601.37V234.37H519.75V279L525.75 285H581.97V269.37H601.4V304.37H517.7L500.3 287V215L525.7 214.95L500.3 189.8V162.35L517.65 145L581.92 144.91V129.37H601.35ZM606.35 124.37H576.92V139.92L517.65 140H515.58L514.12 141.46L496.77 158.82L495.3 160.28V191.85L496.78 193.32L513.57 209.93H500.29H495.29V289.03L496.76 290.49L514.11 307.84L515.57 309.31H606.34V264.31H576.92V279.85H527.77L524.77 276.85V239.39H601.39H606.39V194.39H576.92V209.94L555 210L524.69 179.69V172.52L527.69 169.52L601.27 169.44H606.27V124.44L606.35 124.37Z" fill="white"/>
</g>
<g id="E1TOP">
<path id="Vector_11" d="M601.35 5V24.43H525.7L519.7 30.43V41.72L553 75H525.5L500.3 49.8V22.35L517.65 5H601.35ZM606.35 0H515.58L514.12 1.46L496.77 18.82L495.3 20.28V51.84L496.77 53.3L522 78.49L523.42 80H565.05L556.51 71.46L524.73 39.64V32.47L527.73 29.47H606.31V0H606.35Z" fill="white"/>
</g>
<g id="ZLOW">
<path id="Vector_12" d="M725.18 24.43V50L643.56 131.62V145H672.71L723.23 94.47H725.18V120L643.56 201.62V214.94H672.75L723.23 164.46L725.18 164.38V190L643.56 271.62V284.94H725.18V304.38H624.18V263.54L653.37 234.35H624.13V193.54L653.32 164.35H624.13V123.54L723.23 24.43H725.18ZM730.18 19.43H721.18L719.7 20.9L620.59 120L619.13 121.47V169.35H641.25L620.59 190L619.13 191.47V239.35H641.25L620.59 260L619.13 261.47V309.35H730.13V279.91H648.56V273.66L728.71 193.51L730.18 192.04V159.12L724.95 159.35L723.01 159.44L721.07 159.52L719.7 160.9L670.7 209.9H648.56V203.65L728.71 123.5L730.18 122.03V89.43H721.18L719.7 90.9L670.63 140H648.56V133.68L728.71 53.53L730.18 52V19.43Z" fill="white"/>
</g>
<g id="ZTOP">
<path id="Vector_13" d="M725.18 5V24.43H624.18V5H725.18ZM730.18 0H619.18V29.43H730.18V0Z" fill="white"/>
</g>
<g id="E2LOW">
<path id="Vector_14" d="M849 199.37V234.37H767.38V279L773.38 285H829.6V269.37H849V304.37H765.3L748 287V215L829.62 214.95V199.37H849ZM854 194.37H824.57V209.92L748 210H743V289.11L744.47 290.57L761.82 307.92L763.28 309.39H854V264.39H824.57V279.93H775.42L772.42 276.93V239.39H849.04H854.04V194.39L854 194.37Z" fill="white"/>
</g>
<g id="E2TOP">
<path id="Vector_15" d="M849 5V24.43H773.35L767.35 30.43V41.72L800.63 75H829.57V94.39H767.38V111.72L800.63 145H829.57V129.37H849V164.37H792.5L748 119.76V75H773.2L748 49.76V22.35L765.3 5H849ZM854 0H763.23L761.77 1.46L744.42 18.82L743 20.28V51.84L744.47 53.3L761.07 70H743V121.87L744.47 123.34L766.74 145.63L789 167.88L790.47 169.35H854V124.35H824.57V140H802.7L772.38 109.68V99.39H834.57V70H802.7L772.38 39.64V32.47L775.38 29.47H854V0Z" fill="white"/>
</g>
</g>
<defs>
<clipPath id="clip0_2002_20">
<rect width="854" height="309.35" fill="white"/>
</clipPath>
</defs>
</svg>
